X: 18533
M: 6/8
L: 1/8
K: G
V: 1 clef=treble middle=B
(G/A/) |\
|: (B/c/) |\
dgf {f}e^de | Adc {c}B^AB | EF^G ABc | ABG FED |\
{A}GFG {B}AGA | {c}[BG]AB [cG]de | edc BcA | GAF G2 :|
V: 2 clef=alto middle=c
z |\
d2c B2z | d2c B2z | Bz2 fz2 | a2g f2z |\
d2c B2z | d2c B2z | d2d c2e | d2c B2 :|
|: z |\
V: 3 clef=bass middle=d
z |\
[g2G2]d [g2G2]z | [g2G2]d [g2G2]z | [g2G2]z [a2d2]z | f2g d2z |\
[g2G2]d [g2G2]z | [g2G2]d [g2G2]z | B2B c2A | d2D G2 :|
|: z |\

